packages/tokens/icons/neckMedal/size24Px.svg

<svg viewBox="0 0 24 24" fill="none" xmlns="http://www.w3.org/2000/svg" width="1em" height="1em"><circle cx="12.25" cy="17" r="4.5" stroke="currentColor"/><path d="M12.25 14.618L12.5603 15.5729C12.6941 15.985 13.0781 16.2639 13.5113 16.2639H14.5154L13.7031 16.8541C13.3526 17.1087 13.2059 17.5601 13.3398 17.9721L13.6501 18.9271L12.8378 18.3369C12.4873 18.0822 12.0127 18.0822 11.6622 18.3369L10.8499 18.9271L11.1602 17.9721C11.2941 17.5601 11.1474 17.1087 10.7969 16.8541L9.98461 16.2639L10.9887 16.2639C11.4219 16.2639 11.8059 15.985 11.9397 15.5729L12.25 14.618Z" stroke="currentColor"/><rect x="4" y="4.75" width="3.88909" height="11.6673" rx="1.5" transform="rotate(-45 4 4.75)" stroke="currentColor"/><rect width="3.88909" height="11.6673" rx="1.5" transform="matrix(-0.707107 -0.707107 -0.707107 0.707107 20.5 4.75)" stroke="currentColor"/></svg>

<svg xmlns="http://www.w3.org/2000/svg" fill="none" viewBox="0 0 24 24" width="1em" height="1em"><circle cx="12.25" cy="17" r="4.5" stroke="currentColor"/><path stroke="currentColor" d="m12.25 14.618.31.955a1 1 0 0 0 .951.69h1.004l-.812.591a1 1 0 0 0-.363 1.118l.31.955-.812-.59a1 1 0 0 0-1.176 0l-.812.59.31-.955a1 1 0 0 0-.363-1.118l-.812-.59h1.004a1 1 0 0 0 .95-.691l.311-.955Z"/><rect width="3.889" height="11.667" x="4" y="4.75" stroke="currentColor" rx="1.5" transform="rotate(-45 4 4.75)"/><rect width="3.889" height="11.667" stroke="currentColor" rx="1.5" transform="scale(-1 1) rotate(-45 -4.516 27.12)"/></svg>
